common/src/main/resources/icons/providers/rabbitMQ.svg

<!--
  - The MIT License (MIT)
  -
  - Copyright (c) 2015-2024 Elior "Mallowigi" Boukhobza
  -
  - Permission is hereby granted, free of charge, to any person obtaining a copy
  - of this software and associated documentation files (the "Software"), to deal
  - in the Software without restriction, including without limitation the rights
  - to use, copy, modify, merge, publish, distribute, sublicense, and/or sell
  - copies of the Software, and to permit persons to whom the Software is
  - furnished to do so, subject to the following conditions:
  -
  - The above copyright notice and this permission notice shall be included in all
  - copies or substantial portions of the Software.
  -
  - THE SOFTWARE IS PROVIDED "AS IS", WITHOUT WARRANTY OF ANY KIND, EXPRESS OR
  - IMPLIED, INCLUDING BUT NOT LIMITED TO THE WARRANTIES OF MERCHANTABILITY,
  - FITNESS FOR A PARTICULAR PURPOSE AND NONINFRINGEMENT. IN NO EVENT SHALL THE
  - AUTHORS OR COPYRIGHT HOLDERS BE LIABLE FOR ANY CLAIM, DAMAGES OR OTHER
  - LIABILITY, WHETHER IN AN ACTION OF CONTRACT, TORT OR OTHERWISE, ARISING FROM,
  - OUT OF OR IN CONNECTION WITH THE SOFTWARE OR THE USE OR OTHER DEALINGS IN THE
  - SOFTWARE.
  -->
<svg data-big="true" width="16px" height="16px" viewBox="0 0 16 16" fill="none" xmlns="http://www.w3.org/2000/svg">
  <path
    d="M13.3923 6.44862H9.64436C9.34464 6.41287 9.11641 6.14883 9.11641 5.83805V1.90507C9.11641 1.56953 8.84418 1.3 8.51146 1.3H7.19982C6.86434 1.3 6.59487 1.57228 6.59487 1.90507V5.8793C6.57837 6.17909 6.33089 6.42112 6.03391 6.44862H5.05225C4.76352 6.41287 4.54079 6.17084 4.52154 5.8793V1.90507C4.52154 1.56953 4.24931 1.3 3.91659 1.3H2.60495C2.26948 1.3 2 1.57228 2 1.90507V7.05369V13.3822C2 13.7177 2.27223 13.9873 2.60495 13.9873H3.91659H7.19982H8.51146H13.3951C13.7305 13.9873 14 13.715 14 13.3822V7.05369C13.9973 6.71815 13.7278 6.44862 13.3923 6.44862ZM11.6654 10.7886C11.6654 11.1242 11.3932 11.3937 11.0605 11.3937H9.74885C9.41338 11.3937 9.1439 11.1214 9.1439 10.7886V9.55099C9.1439 9.21545 9.41613 8.94592 9.74885 8.94592H11.0605C11.396 8.94592 11.6654 9.2182 11.6654 9.55099V10.7886Z"
    fill="#FF6600"/>
</svg>

<svg xmlns="http://www.w3.org/2000/svg" width="16" height="16" fill="none" data-big="true"><path fill="#F60" d="M13.392 6.449H9.644a.61.61 0 0 1-.528-.61V1.904a.605.605 0 0 0-.605-.605H7.2a.605.605 0 0 0-.605.605V5.88a.62.62 0 0 1-.561.57h-.982a.61.61 0 0 1-.53-.57V1.905a.605.605 0 0 0-.605-.605H2.605A.605.605 0 0 0 2 1.905v11.477c0 .336.272.605.605.605h10.79a.605.605 0 0 0 .605-.605V7.054a.607.607 0 0 0-.608-.605m-1.727 4.34a.605.605 0 0 1-.604.605H9.749a.605.605 0 0 1-.605-.605V9.55c0-.336.272-.605.605-.605h1.311c.336 0 .605.272.605.605z"/></svg>
